X:2792
T:Polska efter Anders Gustaf Andersson
S:efter Anders Gustaf Andersson
B:[[http://www.sormlandsmusikarkiv.se/noter/oa/626-671.pdf#andersson_anders-Gustaf|Sörmlands musikarkiv - Anders Gustaf Andersson, Nora]], nr 655
O:Mörkö, Södermanland
R:Polska
Z:Nils L
M:3/4
L:1/16
K:Em
e4 E2>E2 E4 | (ef)ge B2B2 B4 | {ga}g2fg a2fa g2fe | (^de)fe d2b2 B4 |
(Bc)BA G2B2 e2B2 | (AB)AG F2A2 d2A2 | (GF)ED E2G2 B2e2 | B2eB e8 ::
K:G
e2a2 a2fa f2d2 | g2b2 b2gb g2d2 | g2fg a2ga b2b2 | ggfg (ag)fe d4 |
e2c2 c2e2 (eg)ec | d2B2 B2d2 d2(ef) | g4 G2>A2 G2(ef | g4) G8 :|
(:musicend:)
(:music:)
